src/actions/24/labplot-5x-zoom.svg

<svg xmlns="http://www.w3.org/2000/svg" viewBox="0 0 24 24">
  <defs id="defs3051">
    <style type="text/css" id="current-color-scheme">
      .ColorScheme-Text {
        color:#2e3440;
      }
      .ColorScheme-Highlight {
        color:#88c0d0;
      }
      </style>
  </defs><g transform="translate(1,1)">
 <path 
     style="fill:currentColor;fill-opacity:1;stroke:none" 
     d="m 16.143119,13.381302 c 0.927125,0 1.65587,0.232794 2.186235,0.698381 0.534413,0.465587 0.801619,1.103238 0.801619,1.912955 0,0.923077 -0.293522,1.647773 -0.880566,2.174089 -0.587045,0.522267 -1.40081,0.783401 -2.441296,0.783401 -0.991903,0 -1.759109,-0.159919 -2.30162,-0.479757 l 0,-1.032389 c 0.299595,0.178138 0.659919,0.319838 1.080972,0.425101 0.421053,0.105263 0.831984,0.157895 1.232794,0.157895 0.696356,0 1.234817,-0.165992 1.615384,-0.497976 0.380567,-0.331983 0.570851,-0.805667 0.570851,-1.421052 0,-1.198381 -0.740891,-1.797571 -2.222673,-1.797571 -0.477733,0 -0.983805,0.06073 -1.518218,0.182186 L 13.720042,14.140411 14,10 18.505467,9.9501278 18.505467,11 15,11 14.776722,13.520978 c 0.465587,-0.09312 0.921053,-0.139676 1.366397,-0.139676 z"
     class="ColorScheme-Highlight"
     />
 <path 
     style="fill:currentColor;fill-opacity:1;stroke:none" 
     d="M 3,3 3,5 4,5 4,4 5,4 5,3 3,3 Z m 5,0 0,1 2,0 0,-1 -2,0 z m 4,0 0,1 2,0 0,-1 -2,0 z m 5,0 0,1 1,0 0,1 1,0 0,-2 -2,0 z M 9,7 9,8 11.292969,8 8,11.292969 8.707031,12 12,8.7070312 12,11 13,11 13,7 12,7 9,7 Z M 3,8 3,10 4,10 4,8 3,8 Z m 0,5 0,6 6,0 0,-6 -6,0 z m 1,1 4,0 0,4 -4,0 0,-4 z"
     class="ColorScheme-Text"
     />
</g></svg>

<svg viewBox="0 0 24 24" xmlns="http://www.w3.org/2000/svg">
 <defs>
  <style type="text/css">.ColorScheme-Text {
        color:#2e3440;
      }
      .ColorScheme-Highlight {
        color:#88c0d0;
      }</style>
 </defs>
 <g transform="translate(1,1)" fill="currentColor">
  <path class="ColorScheme-Highlight" d="m16.143 13.381c0.92712 0 1.6559 0.23279 2.1862 0.69838 0.53441 0.46559 0.80162 1.1032 0.80162 1.913 0 0.92308-0.29352 1.6478-0.88057 2.1741-0.58704 0.52227-1.4008 0.7834-2.4413 0.7834-0.9919 0-1.7591-0.15992-2.3016-0.47976v-1.0324c0.2996 0.17814 0.65992 0.31984 1.081 0.4251s0.83198 0.1579 1.2328 0.1579c0.69636 0 1.2348-0.16599 1.6154-0.49798 0.38057-0.33198 0.57085-0.80567 0.57085-1.4211 0-1.1984-0.74089-1.7976-2.2227-1.7976-0.47773 0-0.9838 0.06073-1.5182 0.18219l-0.54656-0.34615 0.27996-4.1404 4.5055-0.049872v1.0499h-3.5055l-0.22328 2.521c0.46559-0.09312 0.92105-0.13968 1.3664-0.13968z"/>
  <path class="ColorScheme-Text" d="m3 3v2h1v-1h1v-1h-2zm5 0v1h2v-1h-2zm4 0v1h2v-1h-2zm5 0v1h1v1h1v-2h-2zm-8 4v1h2.293l-3.293 3.293 0.70703 0.70703 3.293-3.293v2.293h1v-4h-1-3zm-6 1v2h1v-2h-1zm0 5v6h6v-6h-6zm1 1h4v4h-4v-4z"/>
 </g>
</svg>
